static/logo/battle.svg

<?xml version="1.0" encoding="UTF-8"?>
<svg width="499.65" height="470.25" viewBox="350.4 0 499.65 470.25" xmlns="http://www.w3.org/2000/svg"><defs><style>.cls-2{fill:#148eff;}</style></defs><g transform="translate(0 1.4211e-14)"><path class="cls-2" d="m740.4 159.94c-61.4-28.42-149.78-46.47-232.89-39.75 4.16-27.53 14.45-46.68 31.32-50.72 23.22-5.57 48.55 9.7 72.7 37.51 15.82 2 34.58 5.66 47.64 8.67-44-82.83-103.1-129.25-148-112.12-34.17 13.04-51.67 60.07-49.59 123.28-44.52 9.47-79.2 26.29-101.42 50.48-1.11 1.31-3.66 4.59-2.75 6.16 0.68 1.2 2.95-0.14 3.92-0.79 25.76-18 58.74-27.77 101.7-33.9 6.12 67.43 34.65 153 82 221.56-25.93 10.17-47.65 10.84-59.59-1.75-16.42-17.33-15.86-46.9-3.86-81.72-6.13-14.73-12.39-32.78-16.31-45.59-49.71 79.55-60.38 153.91-23.09 184.24 28.38 23.09 77.85 14.7 131.55-18.7 30.46 33.81 62.37 55.44 94.43 62.58 1.69 0.31 5.81 0.88 6.71-0.69 0.69-1.19-1.6-2.49-2.65-3-28.48-13.3-53.42-37-80.21-71.13 55.34-39 115.13-106.48 150.87-181.82 21.77 17.38 33.21 35.86 28.27 52.49-6.79 22.89-32.68 37.19-68.83 44.21-9.69 12.67-22.2 27.11-31.33 36.91 93.74 3.28 163.48-24.66 171.1-72.13 5.8-36.12-26.19-74.75-82-104.56 14.06-43.29 16.83-81.74 7-113.07-0.57-1.63-2.14-5.47-4-5.47-1.38 0-1.36 2.63-1.28 3.8 2.81 31.31-5.24 64.76-21.41 105.02zm-172.6 199.65c-39.63-63.59-62.51-138.59-62.36-214.33 74.9-2.51 151.24 15.14 216.79 53.16-35.23 66.12-88.74 123.4-154.43 161.16v0.01z"/></g></svg>

<?xml version="1.0" encoding="utf-8"?>
<svg viewBox="350.401 0 499.647 470.249" width="499.647" height="470.249"
    xmlns="http://www.w3.org/2000/svg">
    <defs>
        <style>.cls-2{fill:#148eff;}</style>
    </defs>
    <g transform="matrix(1, 0, 0, 1, 0, 1.4210854715202004e-14)">
        <g>
            <g>
                <path class="cls-2"
                    d="M 740.4 159.94 C 679 131.52 590.62 113.47 507.51 120.19 C 511.67 92.66 521.96 73.51 538.83 69.47 C 562.05 63.9 587.38 79.17 611.53 106.98 C 627.35 108.98 646.11 112.64 659.17 115.65 C 615.17 32.82 556.07 -13.6 511.17 3.53 C 477 16.57 459.5 63.6 461.58 126.81 C 417.06 136.28 382.38 153.1 360.16 177.29 C 359.05 178.6 356.5 181.88 357.41 183.45 C 358.09 184.65 360.36 183.31 361.33 182.66 C 387.09 164.66 420.07 154.89 463.03 148.76 C 469.15 216.19 497.68 301.76 545.03 370.32 C 519.1 380.49 497.38 381.16 485.44 368.57 C 469.02 351.24 469.58 321.67 481.58 286.85 C 475.45 272.12 469.19 254.07 465.27 241.26 C 415.56 320.81 404.89 395.17 442.18 425.5 C 470.56 448.59 520.03 440.2 573.73 406.8 C 604.19 440.61 636.1 462.24 668.16 469.38 C 669.85 469.69 673.97 470.26 674.87 468.69 C 675.56 467.5 673.27 466.2 672.22 465.69 C 643.74 452.39 618.8 428.69 592.01 394.56 C 647.35 355.56 707.14 288.08 742.88 212.74 C 764.65 230.12 776.09 248.6 771.15 265.23 C 764.36 288.12 738.47 302.42 702.32 309.44 C 692.63 322.11 680.12 336.55 670.99 346.35 C 764.73 349.63 834.47 321.69 842.09 274.22 C 847.89 238.1 815.9 199.47 760.09 169.66 C 774.15 126.37 776.92 87.92 767.09 56.59 C 766.52 54.96 764.95 51.12 763.09 51.12 C 761.71 51.12 761.73 53.75 761.81 54.92 C 764.62 86.23 756.57 119.68 740.4 159.94 Z M 567.8 359.59 C 528.17 296 505.29 221 505.44 145.26 C 580.34 142.75 656.68 160.4 722.23 198.42 C 687 264.54 633.49 321.82 567.8 359.58 L 567.8 359.59 Z" />
            </g>
        </g>
    </g>
</svg>
